X:1
T:Rockin' Around the Christmas Tree
T:Rockin' Around the Christmas Tree
T:Johnny Marks
C:Johnny Marks
Z:Public Domain
L:1/4
M:4/4
K:C
V:1 treble 
%%MIDI program 40
V:1
|:"C" G/G/ G A A | G G/A/- A G/G/ |"G7" B A F D | B, z z2 |"Dm7" A/A/ A"G7" B B | %5
w: Rock- in' a- round the|Christ- mas tree * at the|christ- mas par- ty|hop|Mis- tle- toe hung where|
"Dm7" A A/B/-"G7" B A/A/ | G ^G A F |"C" E z z2 |"C" G/G/ G A A | G G/A/- A G/G/ |"G7" B A F D | %11
w: you can see * Ev- 'ry|cou- ple tries to|stop|Rock- in' a- round the|Christ- mas tree * let the|Christ- mas spir- it|
 B, z z2 |"Dm7" A/A/ A"G7" B B |"Dm7" A A/B/-"G7" B A/A/ | G ^G A B, |"C" C3 z |]"F" A ^G A G | %17
w: ring|lat- er we'll have some|pump- kin pie * and we'll|do some car- ol-|ing|You will get a|
 A C F A |"Em" B G E G | B4 |"Am" c B"^A m+7" c B |"Am7" c A B c |"D7" d"^N.C." z/ c/ B A | %23
w: sen- ti- men- tal|feel- ing when you|haer|voic- es sing- ing|"let's be jol- ly|Deck the halls with|
"G7" G A B G ||"C" G/G/ G A A | G G/A/- A G/G/ |"G7" B A F D | B,4 |"Dm7" A/A/ A"G7" B B | %29
w: boughs of hol- ly"|Rocki- in' a- round the|Christ- mas tree * have a|hap- py hol- i-|day|er- 'ry- one danc- ing|
"Dm7" A A/B/-"G7" B A/A/ |1 G ^G A B |"C" c3 z :|2 G z ^G z |"Dm7" A z"G7" B z |"C" [c-d]/ x7/2 | %35
w: mer- ri- ly * in the|new old- fash- ioned|way|New old|fash- ioned|way|
 c4- | c4 || !^!c' z z2 |] %38
w: |||

